!!!!SEGMENT: pl-cz--iii-555--001-006_raszek-waclaw--requiem-sanctus.krn
!!!cenid: 17xx:1085
!!!COM: Raszek, Wacław
!!!COM-rismID: pe30020314
!!!CDT: <1848->1848
!!!CNT:
!!!OPR: Requiem
!!!OTL: Sanctus
!!!OMV: 006
!!!PDT:
!!!AGN: Sacred; Requiem
!!!SMS-siglum: PL-CZ
!!!SMS-shelfmark: III-555
!!!SMS-shelfwork: 001-006 M
!!!SMS-variant:
!!!SMS-altvar:
!!!NIFC-rismSourceID: 300001055
!!!NIFC-islandoraID: pl-cz:38890
!!!URL-pdf-islandora: https://repozytorium.nifc.pl/islandora/object/pl-cz%3A38890/datastream/PDF/view
!!!URL-scan:
!!!ONB-nifc: UWAGA: części Requiem: Requiem, Kyrie, Dies irae, Qui Mariam, Domine Jesu Christe, Sanctus, Pleni sunt, Benedictus, Agnus Dei, Lux aeterna
!!!AIN: 1 alto 1 bass 2 clars 3 empty 1 tenor 1 vox
!!!key:
**kern	**text	**kern	**text	**kern	**text	**kern	**text	**dynam	**kern	**dynam	**kern	**dynam	**kern	**dynam	**kern	**kern
*part9	*part9	*part8	*part8	*part7	*part7	*part6	*part6	*part6	*part5	*part5	*part4	*part4	*part3	*part3	*part2	*part1
*staff9	*staff9	*staff8	*staff8	*staff7	*staff7	*staff6	*staff6	*	*staff5	*	*staff4	*	*staff3	*	*staff2	*staff1
*Ibass	*	*Itenor	*	*Ialto	*	*Ivox	*	*	*Iempty	*	*Iempty	*	*Iempty	*	*Iclars	*Iclars
*I"Basso.	*	*I"Tenore.	*	*I"Alto.	*	*I"Canto.	*	*	*I"Corno in E♭	*	*I"Corno in E♭	*	*I"Fagotto vel Violone	*	*I"Clarinetto in B♭	*I"Clarinetto in B♭
*I'B.	*	*I'T.	*	*I'A.	*	*I'C.	*	*	*I'C. in E♭	*	*I'C. in E♭	*	*I'Fag. v. V-ne	*	*I'Cl. in B♭	*I'Cl. in B♭
*clefF4	*	*clefC4	*	*clefC3	*	*clefC1	*	*	*clefG2	*	*clefG2	*	*clefF4	*	*clefG2	*clefG2
*	*	*	*	*	*	*	*	*	*ITrd5c9	*	*ITrd5c9	*	*	*	*ITrd1c2	*ITrd1c2
*k[b-e-a-]	*	*k[b-e-a-]	*	*k[b-e-a-]	*	*k[b-e-a-]	*	*	*k[b-e-a-]	*	*k[b-e-a-]	*	*k[b-e-a-]	*	*k[b-e-a-]	*k[b-e-a-]
*c:	*	*c:	*	*c:	*	*c:	*	*	*c:	*	*c:	*	*c:	*	*c:	*c:
*M3/4	*	*M3/4	*	*M3/4	*	*M3/4	*	*	*M3/4	*	*M3/4	*	*M3/4	*	*M3/4	*M3/4
=1	=1	=1	=1	=1	=1	=1	=1	=1	=1	=1	=1	=1	=1	=1	=1	=1
*2\right	*	*2\right	*	*2\right	*	*2\right	*	*	*2\right	*	*2\right	*	*2\right	*	*2\right	*2\right
!	!	!	!	!	!	!	!	!	!	!	!	!	!	!	!LO:TX:t=P:problem=all\right&colon; global	!
!	!	!LO:TX:a:Bi:t=adagio	!	!LO:TX:a:Bi:t=adagio	!	!LO:TX:a:Bi:t=adagio	!	!	!LO:TX:a:Bi:t=Adagio	!	!LO:TX:a:Bi:t=adagio	!	!	!	!LO:TX:a:Bi:t=Adagio	!LO:TX:a:Bi:t=adagio
4E-\	San-	2B-\	San-	2g\	an-	2ee-\	San-	.	4E-/	.	4e-\	.	4EE-/	.	2g/	2ee-\
4GG/	-ctus	.	.	.	.	.	.	.	4E-/	.	4e-\	.	4GG/	.	.	.
4BB-/	.	4e-\	-ctus	4g\	-ctus	4ee-\	-ctus	.	4E-/	.	4e-\	.	4BB-/	.	4g/	4ee-\
=2	=2	=2	=2	=2	=2	=2	=2	=2	=2	=2	=2	=2	=2	=2	=2	=2
*	*	*	*ij	*	*ij	*	*ij	*	*	*	*	*	*	*	*	*
2E-\	.	2e-\	san-	4g\	san-	4ee-\	san-	.	2E-/	.	2e-\	.	4E-\	.	4g/	4ee-\
.	.	.	.	4b-\	.	4dd\	.	.	.	.	.	.	4EE-/	.	4b-/	4dd\
4E-\	.	4e-\	-ctus	4a-\	-ctus	4cc\	-ctus	.	4r	.	4r	.	4r	.	4a-/	4cc\
*	*	*	*Xij	*	*Xij	*	*Xij	*	*	*	*	*	*	*	*	*
=3	=3	=3	=3	=3	=3	=3	=3	=3	=3	=3	=3	=3	=3	=3	=3	=3
4E-\	San-	4e-\	San-	4a-\	San-	4cc\	San-	.	4E-/	.	4e-\	.	4E-\	.	8a-/L	8cc\L
.	.	.	.	.	.	.	.	.	.	.	.	.	.	.	16g/L	16b-\L
.	.	.	.	.	.	.	.	.	.	.	.	.	.	.	16a-/JJ	16cc\JJ
!	!	!	!	!LO:TX:t=P:problem=w źródle skreślona kreska taktowa	!	!	!	!	!	!	!	!	!	!	!	!
4EE-/	-ctus	4e-\	-ctus	4g\	-ctus	4b-\	-ctus	.	8E-/L	.	8e-\L	.	4EE-/	.	8g/L	8b-\L
.	.	.	.	.	.	.	.	.	8G/	.	8e-\	.	.	.	8g/	8ee-\
4r	.	4r	.	4r	.	4r	.	.	8G/	.	8e-\	.	4r	.	8g/	8ee-\
.	.	.	.	.	.	.	.	.	8G/J	.	8e-\J	.	.	.	8g/J	8ee-\J
=4	=4	=4	=4	=4	=4	=4	=4	=4	=4	=4	=4	=4	=4	=4	=4	=4
*	*ij	*	*	*	*ij	*	*	*	*	*	*	*	*	*	*	*
4B-\	San-	4B-\	San-	4g\	San-	4ee-\	San-	.	4G/	.	4e-\	.	4B-\	.	4g\	4ee-\
4BB-/	-ctus	8B-\L	.	4f\	-ctus	8dd\L	.	.	8B-\L	.	8f\L	.	4BB-/	.	8b-\L	8dd\L
.	.	8c\J	.	.	.	8ee-\	.	.	8e-\	.	8e-\	.	.	.	8cc\	8ee-\
4r	.	8d\L	.	4r	.	8ff\	.	.	8B-\	.	8f\	.	4r	.	8dd\	8ff\
.	.	8e-\J	.	.	.	8gg\J	.	.	8e-\J	.	8g\J	.	.	.	8ee-\J	8gg\J
=5	=5	=5	=5	=5	=5	=5	=5	=5	=5	=5	=5	=5	=5	=5	=5	=5
4BB-/	san-	4f\	.	2f\	san-	4aa-\	.	.	4f\	.	4a-\	.	4BB-/	.	4ff\	4aa-\
4D/	.	4B-\	.	.	.	4a-\	.	.	4B-/	.	4f\	.	4D/	.	4f/	4a-\
4BB-/	-ctus	4B-\	-ctus	4f\	-ctus	4a-\	-ctus	.	4B-/	.	4f\	.	4BB-/	.	4f/	4a-\
*	*Xij	*	*	*	*	*	*	*	*	*	*	*	*	*	*	*
=6	=6	=6	=6	=6	=6	=6	=6	=6	=6	=6	=6	=6	=6	=6	=6	=6
*	*ij	*	*ij	*	*	*	*ij	*	*	*	*	*	*	*	*	*
4E-\	San-	4B-\	san-	4f\	san-	4a-\	san-	.	4B-/	.	4f\	.	4E-\	.	4f/	4a-\
!	!	!	!	!	!	!	!	!	!	!	!	!	!	!	!	!LO:TX:t=P:problem=mixed beam
4EE-/	-ctus	4B-\	-ctus	4e-\	-ctus	4g\	-ctus	.	4G/	.	4e-\	.	4EE-/	.	4e-/	8g\L
.	.	.	.	.	.	.	.	.	.	.	.	.	.	.	.	8bb-\
*	*Xij	*	*	*	*	*	*Xij	*	*	*	*	*	*	*	*	*
4r	.	4r	.	4r	.	4r	.	.	8r	.	8r	.	8r	.	8r	8gg\
.	.	.	.	.	.	.	.	.	8e-\	.	8g\	.	8E-\	.	8g/	8ee-\J
=7	=7	=7	=7	=7	=7	=7	=7	=7	=7	=7	=7	=7	=7	=7	=7	=7
*	*ij	*	*	*	*	*	*ij	*	*	*	*	*	*	*	*	*
4B-\	san-	4B-\	san-	4g\	san-	4ee-\	san-	.	4e-\	.	4g\	.	4B-\	.	4g/	4ee-\
4BB-/	-ctus	4B-\	-ctus	4f\	-ctus	4dd\	-ctus	.	4B-/	.	4f\	.	4BB-/	.	4f/	8dd\L
.	.	.	.	.	.	.	.	.	.	.	.	.	.	.	.	8ff\
*	*Xij	*	*Xij	*	*Xij	*	*Xij	*	*	*	*	*	*	*	*	*
4r	.	4r	.	4r	.	4r	.	.	4r	.	4r	.	4r	.	4r	8dd\
.	.	.	.	.	.	.	.	.	.	.	.	.	.	.	.	8b-\J
=8	=8	=8	=8	=8	=8	=8	=8	=8	=8	=8	=8	=8	=8	=8	=8	=8
!	!	!	!	!	!	!	!	!	!	!LO:DY:a	!	!LO:DY:a	!	!	!	!
4c\	Do-	4.An\	Do-	4.f\	Do-	4.ee-\	Do-	p	2f\	p	2f\	p	4c\	.	16F/LL	4ee-\
.	.	.	.	.	.	.	.	.	.	.	.	.	.	.	16A/	.
.	.	.	.	.	.	.	.	.	.	.	.	.	.	.	16c/	.
.	.	.	.	.	.	.	.	.	.	.	.	.	.	.	16A/JJ	.
4An\	-mi-	.	.	.	.	.	.	.	.	.	.	.	4An\	.	16F/LL	8r
.	.	.	.	.	.	.	.	.	.	.	.	.	.	.	16A/	.
.	.	8c\	-mi-	8f\	-mi-	8ee-\	-mi-	.	.	.	.	.	.	.	16c/	8ee-\L
.	.	.	.	.	.	.	.	.	.	.	.	.	.	.	16A/JJ	.
4F\	-nus	4c\	-nus	4f\	-nus	4ee-\	-nus	.	4f\	.	4f\	.	4F\	.	4ryy	8ee-\
.	.	.	.	.	.	.	.	.	.	.	.	.	.	.	.	8ee-\J
=9	=9	=9	=9	=9	=9	=9	=9	=9	=9	=9	=9	=9	=9	=9	=9	=9
4B-\	De-	2B-\	De-	2f\	De-	2dd\	De-	.	2f\	.	2f\	.	4B-\	.	16F/LL	8ee-\L
.	.	.	.	.	.	.	.	.	.	.	.	.	.	.	16B-/	.
.	.	.	.	.	.	.	.	.	.	.	.	.	.	.	16d/	8dd\J
.	.	.	.	.	.	.	.	.	.	.	.	.	.	.	16B-/JJ	.
4BB-/	-us	.	.	.	.	.	.	.	.	.	.	.	4BB-/	.	16F/LL	8r
!	!	!	!	!	!	!	!	!	!	!	!	!	!	!	!LO:TX:t=P:problem=zapis poprawiany	!
!	!	!	!	!	!	!	!	!	!	!	!	!	!	!	!LO:TX:b:t=c	!
.	.	.	.	.	.	.	.	.	.	.	.	.	.	.	16B-/	.
.	.	.	.	.	.	.	.	.	.	.	.	.	.	.	16d/	8dd\L
.	.	.	.	.	.	.	.	.	.	.	.	.	.	.	16B-/JJ	.
4r	.	8B-\L	-us	4f\	-us	8dd\L	-us	.	8f\L	.	8f\L	.	4r	.	4ryy	8ff\
.	.	8d\J	.	.	.	8ff\J	.	.	8f\J	.	8f\J	.	.	.	.	8ff\J
=10	=10	=10	=10	=10	=10	=10	=10	=10	=10	=10	=10	=10	=10	=10	=10	=10
!	!	!	!	!	!	!	!	!	!	!	!	!	!LO:TX:t=P:rep:problem	!	!LO:TX:t=P:rep:problem	!
4c\	Sa-	2An\	Sa-	2f\	Sa-	2ee-\	Sa-	.	2f\	.	2f\	.	4c\	.	16F/LL	8ff\L
.	.	.	.	.	.	.	.	.	.	.	.	.	.	.	16A/	.
.	.	.	.	.	.	.	.	.	.	.	.	.	.	.	16c/	8ee-\J
.	.	.	.	.	.	.	.	.	.	.	.	.	.	.	16A/JJ	.
4An\	.	.	.	.	.	.	.	.	.	.	.	.	4An\	.	16F/LL	8r
.	.	.	.	.	.	.	.	.	.	.	.	.	.	.	16A/	.
.	.	.	.	.	.	.	.	.	.	.	.	.	.	.	16c/	8ee-\L
.	.	.	.	.	.	.	.	.	.	.	.	.	.	.	16A/JJ	.
4F\	-ba-	4c\	-ba-	4f\	-ba-	4ee-\	-ba-	.	4f\	.	4f\	.	4F\	.	4ryy	8ee-\
.	.	.	.	.	.	.	.	.	.	.	.	.	.	.	.	8ee-\J
=11	=11	=11	=11	=11	=11	=11	=11	=11	=11	=11	=11	=11	=11	=11	=11	=11
4B-\	-oth	4B-\	-oth	4f\	-oth	4dd\	-oth	.	2f\	.	2f\	.	4B-\	.	16F/LL	8ee-\L
.	.	.	.	.	.	.	.	.	.	.	.	.	.	.	16B-/	.
.	.	.	.	.	.	.	.	.	.	.	.	.	.	.	16d/	8dd\J
.	.	.	.	.	.	.	.	.	.	.	.	.	.	.	16B-/JJ	.
4r	.	4r	.	4r	.	4r	.	.	.	.	.	.	4BB-/	.	16F/LL	8r
!	!	!	!	!	!	!	!	!	!	!	!	!	!	!	!LO:TX:t=P:problem=zapis poprawiany	!
!	!	!	!	!	!	!	!	!	!	!	!	!	!	!	!LO:TX:b:t=c	!
.	.	.	.	.	.	.	.	.	.	.	.	.	.	.	16B-/	.
.	.	.	.	.	.	.	.	.	.	.	.	.	.	.	16d/	8dd\L
.	.	.	.	.	.	.	.	.	.	.	.	.	.	.	16B-/JJ	.
4r	.	4r	.	4r	.	4r	.	.	4f\	.	4f\	.	4r	.	4ryy	8dd\
.	.	.	.	.	.	.	.	.	.	.	.	.	.	.	.	8dd\J
=12	=12	=12	=12	=12	=12	=12	=12	=12	=12	=12	=12	=12	=12	=12	=12	=12
*	*ij	*	*ij	*	*ij	*	*ij	*	*	*	*	*	*	*	*	*
!	!	!	!	!	!	!	!	!	!	!LO:DY:a	!	!LO:DY:a	!	!	!	!
4.G\	Sa-	4.dn\	Sa-	4.g\	Sa-	4.ff\	Sa-	.	4.G/	f	4.g\	f	4.G\	f	4.dd\	4.ff\
8G\	-ba-	8c\	-ba-	8g\	-ba-	8ee-\	-ba-	.	8G/	.	8g\	.	8G\	.	8cc\	8ee-\
4G\	-oth	4Bn\	-oth	4g\	-oth	4dd\	-oth	.	4G/	.	4g\	.	4GG/	.	4bX\	4dd\
=13	=13	=13	=13	=13	=13	=13	=13	=13	=13	=13	=13	=13	=13	=13	=13	=13
4C/	sa-	4c\	sa-	4g\	sa-	4ee-\	Sa-	.	2G/	.	2g\	.	4C/	.	4g/	4ee-\
4D\	-ba-	4G/	-ba-	4f\	-ba-	4bn\	-ba-	.	.	.	.	.	4D\	.	4f/	4bX\
4E-\	-oth	4G/	-oth	4g\	-oth	4cc\	-oth	.	4r	.	4r	.	4E-\	.	4g/	4cc\
=14	=14	=14	=14	=14	=14	=14	=14	=14	=14	=14	=14	=14	=14	=14	=14	=14
!	!	!	!	!	!	!	!	!	!LO:TX:a:t=1.	!	!LO:TX:a:t=1	!	!	!	!	!
2F#X\	sa-	2An\	sa-	2e-\	sa-	2cc\	Sa-	.	2.r	.	2.r	.	2F#X\	.	2e-/	2cc\
4F#\	-ba-	4A\	-ba-	4e-\	-ba-	4cc\	-ba-	.	.	.	.	.	4F#\	.	4e-/	4cc\
=15	=15	=15	=15	=15	=15	=15	=15	=15	=15	=15	=15	=15	=15	=15	=15	=15
!	!	!	!	!	!	!	!	!	!	!LO:DY:a	!	!LO:DY:a	!	!	!	!
4G\	-oth	4G/	-oth	4d\	-oth	4b-\	-oth	.	2.G/	p	2.g\	p	4G\	.	4e-/	4bX\
*	*Xij	*	*Xij	*	*Xij	*	*Xij	*	*	*	*	*	*	*	*	*
4r	.	4r	.	4r	.	4r	.	.	.	.	.	.	4GG/	.	8bX\L	8gg\L
.	.	.	.	.	.	.	.	.	.	.	.	.	.	.	8dd\J	8ff\
4r	.	4r	.	4r	.	4r	.	.	.	.	.	.	4r	.	8dd\L	8ff\
.	.	.	.	.	.	.	.	.	.	.	.	.	.	.	8dd\J	8ff\J
=16	=16	=16	=16	=16	=16	=16	=16	=16	=16	=16	=16	=16	=16	=16	=16	=16
!LO:TX:a:t=1	!	!LO:TX:a:t=1	!	!LO:TX:a:t=1	!	!LO:TX:a:t=1	!	!	!	!	!	!	!	!	!	!
2.r	.	2.r	.	2.r	.	2.r	.	.	2.G/	.	2.g\	.	4G\	p	(8dd\L	(8ff\L
.	.	.	.	.	.	.	.	.	.	.	.	.	.	.	8cc\J)	8ee-\)
.	.	.	.	.	.	.	.	.	.	.	.	.	4GG/	.	8cc'\L	8ee-'\
.	.	.	.	.	.	.	.	.	.	.	.	.	.	.	8cc'\	8ee-'\J
.	.	.	.	.	.	.	.	.	.	.	.	.	4r	.	(8dd\	(8ff\L
.	.	.	.	.	.	.	.	.	.	.	.	.	.	.	8cc\J)	8ee-\J)
=17	=17	=17	=17	=17	=17	=17	=17	=17	=17	=17	=17	=17	=17	=17	=17	=17
!	!	!	!	!	!	!	!	!LO:DY:a	!	!	!	!	!	!	!	!
4C/	Sa-	2G/	Sa-	2e-\	Sa-	2cc\	Sa-	p	4G/	.	4g\	.	4C/	.	4cc\	4ee-\
4E-\	.	.	.	.	.	.	.	.	4G/	.	4g\	.	4E-\	.	4cc\	4ee-\
4C/	-ba-	4G/	-ba-	4e-\	-ba-	4dd\	-ba-	.	4G/	.	4g\	.	4C/	.	4cc\	4ee-\
=18	=18	=18	=18	=18	=18	=18	=18	=18	=18	=18	=18	=18	=18	=18	=18	=18
2GG;/	-oth	2G;/	-oth	2d;\	-oth	2.bn\	-oth	.	2G;/	.	2g;\	.	2GG;/	.	2bX;\	2.dd;\
!	!	!	!	!	!	!	!	!	!	!	!	!	!	!	!LO:TX:b:t=Verte cito	!
4r	.	4r	.	4r	.	.	.	.	4r	.	4r	.	4r	.	4r	.
==	==	==	==	==	==	==	==	==	==	==	==	==	==	==	==	==
*-	*-	*-	*-	*-	*-	*-	*-	*-	*-	*-	*-	*-	*-	*-	*-	*-
!!!system-decoration: [(s1,s2,s3)][(s4,s5)][(s6,s7,s8,s9)]
!!!RDF**kern: > = above
!!!RDF**kern: < = below
!!!RDF**kern: | = vertical stroke
!!!RDF**kern: N = linked
!!!RDF**kern: i = editorial accidental
!!!RDF**kern: l = terminal long
!!!ENC: Andrzej Gręziak
!!!END: 2020-09-19
!!!EED: Wojciech Jakubiak-Danek
!!!EEV: 2022-01-31
!!!YEC: Copyright 2022 Narodowy Instytut Fryderyka Chopina (https://polishscores.org)
!!!YEM: Licence CC BY 4.0 (https://creativecommons.org/licenses/by/4.0)
